src/icons/cpp.svg

<svg viewBox="0 0 24 24" xmlns="http://www.w3.org/2000/svg">
  <path
    d="m10 15.97.41 2.44c-.26.14-.68.27-1.24.39-.57.13-1.24.2-2.01.2-2.21-.04-3.87-.7-4.98-1.96C1.06 15.77.5 14.16.5 12.21c.05-2.31.72-4.08 2-5.32C3.82 5.64 5.46 5 7.44 5c.75 0 1.4.07 1.94.19s.94.25 1.2.4L10 8.08l-1.06-.34c-.4-.1-.86-.15-1.39-.15-1.16-.01-2.12.36-2.87 1.1-.76.73-1.15 1.85-1.18 3.34 0 1.36.37 2.42 1.08 3.2.71.77 1.71 1.17 2.99 1.18l1.33-.12c.43-.08.79-.19 1.1-.32m.5-4.97h2V9h2v2h2v2h-2v2h-2v-2h-2v-2m7 0h2V9h2v2h2v2h-2v2h-2v-2h-2z"
    fill="#0277bd"
  />
</svg>

<svg viewBox="0 0 24 24" xmlns="http://www.w3.org/2000/svg">
  <path
    d="M10 15.97L10.41 18.41C10.15 18.55 9.73 18.68 9.17 18.8C8.6 18.93 7.93 19 7.16 19C4.95 18.96 3.29 18.3 2.18 17.04C1.06 15.77 0.5 14.16 0.5 12.21C0.55 9.9 1.22 8.13 2.5 6.89C3.82 5.64 5.46 5 7.44 5C8.19 5 8.84 5.07 9.38 5.19C9.92 5.31 10.32 5.44 10.58 5.59L10 8.08L8.94 7.74C8.54 7.64 8.08 7.59 7.55 7.59C6.39 7.58 5.43 7.95 4.68 8.69C3.92 9.42 3.53 10.54 3.5 12.03C3.5 13.39 3.87 14.45 4.58 15.23C5.29 16 6.29 16.4 7.57 16.41L8.9 16.29C9.33 16.21 9.69 16.1 10 15.97ZM10.5 11H12.5V9H14.5V11H16.5V13H14.5V15H12.5V13H10.5V11ZM17.5 11H19.5V9H21.5V11H23.5V13H21.5V15H19.5V13H17.5V11Z"
    fill="#0288D1"
  />
</svg>
